packages/core/src/svgs/vcore.svg

<svg width="24" height="24" viewBox="0 0 24 24" fill="none" xmlns="http://www.w3.org/2000/svg">
<g clip-path="url(#clip0_31_20335)">
<path d="M0 0H24V24H0V0Z" fill="#F0F3FA"/>
<path d="M12.0001 19.2858C16.0239 19.2858 19.2858 16.0239 19.2858 12.0001C19.2858 7.97628 16.0239 4.71436 12.0001 4.71436C7.97628 4.71436 4.71436 7.97628 4.71436 12.0001C4.71436 16.0239 7.97628 19.2858 12.0001 19.2858Z" fill="url(#paint0_linear_31_20335)"/>
<path d="M18.8874 14.3787C18.4398 15.6746 17.6363 16.8183 16.5688 17.6787C15.8402 16.9587 15.1674 15.2787 15.9945 14.3358C16.7959 13.423 18.1802 13.9415 18.8874 14.3787Z" fill="url(#paint1_linear_31_20335)"/>
<path d="M8.9871 18.6342C7.42509 17.9229 6.16292 16.685 5.42139 15.1371C5.99567 14.9228 6.95567 14.8628 7.90282 15.7156C8.96567 16.6756 9.1371 17.9485 8.9871 18.6342Z" fill="#C49D41"/>
<path d="M6.88281 6.81415C7.48281 7.07986 8.2671 7.28558 8.85424 6.98986L9.36424 6.72843C9.93424 6.42843 10.0671 6.35558 10.5514 6.47129C10.7785 6.52701 10.9628 6.67272 11.1514 6.81843C11.46 7.06272 11.7814 7.31558 12.3342 7.19129C13.1314 7.01129 14.5285 6.09843 14.5285 5.16415C13.2297 4.6817 11.8201 4.58028 10.4656 4.87183C9.11114 5.16338 7.8681 5.83577 6.88281 6.80986V6.81415Z" fill="#B38B3E"/>
<path d="M14.5455 7.71436H12.8312L11.9998 9.77578L11.1684 7.71436H9.45408L10.6969 10.8001L6.85693 9.57007V11.2072L9.32979 11.9958L6.85693 12.7886V14.4258L10.6112 13.2258L9.37693 16.2858H11.0912L11.9998 14.0358L12.9084 16.2858H14.6226L13.4226 13.3072L17.1426 14.4986V12.8572L14.4426 12.0001L17.1426 11.1386V9.5015L13.3369 10.7144L14.5455 7.71436Z" fill="black"/>
</g>
<defs>
<linearGradient id="paint0_linear_31_20335" x1="5.16436" y1="12.3772" x2="18.5015" y2="10.3029" gradientUnits="userSpaceOnUse">
<stop stop-color="#D3A955"/>
<stop offset="0.24" stop-color="#CEA651"/>
<stop offset="0.46" stop-color="#FFD57E"/>
<stop offset="0.75" stop-color="#FBD072"/>
<stop offset="1" stop-color="#FCC766"/>
</linearGradient>
<linearGradient id="paint1_linear_31_20335" x1="15.6131" y1="14.3015" x2="18.6602" y2="16.6201" gradientUnits="userSpaceOnUse">
<stop stop-color="#BC8E3A"/>
<stop offset="1" stop-color="#79622D"/>
</linearGradient>
<clipPath id="clip0_31_20335">
<rect width="24" height="24" fill="white"/>
</clipPath>
</defs>
</svg>

<svg xmlns="http://www.w3.org/2000/svg" width="24" height="24" fill="none" viewBox="0 0 24 24"><g clip-path="url(#a)"><path fill="#F0F3FA" d="M0 0h24v24H0z"/><path fill="url(#b)" d="M12 19.286a7.286 7.286 0 1 0 0-14.572 7.286 7.286 0 0 0 0 14.572"/><path fill="url(#c)" d="M18.887 14.379a7.3 7.3 0 0 1-2.318 3.3c-.729-.72-1.402-2.4-.574-3.343.8-.913 2.185-.395 2.892.043"/><path fill="#C49D41" d="M8.987 18.634a7.3 7.3 0 0 1-3.566-3.497c.575-.214 1.535-.274 2.482.579 1.063.96 1.234 2.233 1.084 2.918"/><path fill="#B38B3E" d="M6.883 6.814c.6.266 1.384.472 1.971.176l.51-.262c.57-.3.703-.372 1.187-.257.227.056.412.202.6.347.309.245.63.498 1.183.373.797-.18 2.194-1.093 2.194-2.027A7.27 7.27 0 0 0 6.884 6.81z"/><path fill="#000" d="M14.546 7.714H12.83L12 9.776l-.832-2.062H9.454l1.243 3.086-3.84-1.23v1.637l2.473.789-2.473.793v1.637l3.754-1.2-1.234 3.06h1.714l.909-2.25.908 2.25h1.715l-1.2-2.979 3.72 1.192v-1.642l-2.7-.857 2.7-.861V9.502l-3.806 1.212z"/></g><defs><linearGradient id="b" x1="5.164" x2="18.502" y1="12.377" y2="10.303" gradientUnits="userSpaceOnUse"><stop stop-color="#D3A955"/><stop offset=".24" stop-color="#CEA651"/><stop offset=".46" stop-color="#FFD57E"/><stop offset=".75" stop-color="#FBD072"/><stop offset="1" stop-color="#FCC766"/></linearGradient><linearGradient id="c" x1="15.613" x2="18.66" y1="14.302" y2="16.62" gradientUnits="userSpaceOnUse"><stop stop-color="#BC8E3A"/><stop offset="1" stop-color="#79622D"/></linearGradient><clipPath id="a"><path fill="#fff" d="M0 0h24v24H0z"/></clipPath></defs></svg>
